svg/phone.svg

<svg xmlns="http://www.w3.org/2000/svg" viewBox="0 0 38 64" enable-background="new 0 0 38 64"><style type="text/css">.st0{fill:#333333;}</style><title>phone</title><desc>Created with Sketch.</desc><path class="st0" d="M34 0h-30c-2.2 0-4 1.8-4 4v56c0 2.2 1.8 4 4 4h30c2.2 0 4-1.8 4-4v-56c0-2.2-1.8-4-4-4zm0 4v4h-30v-4h30zm0 8v36h-30v-36h30zm-30 48v-8h30v8h-30z"/><circle class="st0" cx="19" cy="56" r="3"/></svg>

<svg xmlns="http://www.w3.org/2000/svg" viewBox="0 0 38 64"><style>.st0{fill:#333}</style><path class="st0" d="M34 0H4C1.8 0 0 1.8 0 4v56c0 2.2 1.8 4 4 4h30c2.2 0 4-1.8 4-4V4c0-2.2-1.8-4-4-4zm0 4v4H4V4h30zm0 8v36H4V12h30zM4 60v-8h30v8H4z"/><circle class="st0" cx="19" cy="56" r="3"/></svg>
